X: 31985
T: Peddlers Lake
R: jig
M: 6/8
K: Fmajor
|:FCF GAc|cAd cAG|~(F3 F2)c|dcA ~G3|
FCF GAc|cAd cde|fz2 ~d3|cA/G/F FGc:|
|:cAc ~d2 c|cA/G/F FGc|cA/B/ c ~d2 c|cA/G/F F2 c|
cA/B/ c ~d2 c|cAF GAB|f3 ~d3|1 cA/G/F FGc:|2 cA/G/F EGc||

